X:419
M:C
L:1/8
K:G Minor
d|B>GG>F D<G G>B|A<F c>F d>FA>c|~B<G G>F D<G G>A|
(3aba (3ga^f g>fg>a|b>ga>d gf/e/ g>B|e>cd>G ^F<dD<c|B<G G>F D<G G>A|

